content/Tutorials/game_changer/2010montr-film3.pp3
[Version]
AppVersion=5.12-244-g4f408623f
Version=353

[General]
ColorLabel=0
InTrash=false

[Exposure]
Auto=false
Clip=0.02
Compensation=0
Brightness=0
Contrast=0
Saturation=0
Black=0
HighlightCompr=0
HighlightComprThreshold=0
ShadowCompr=50
HistogramMatching=false
CurveFromHistogramMatching=false
ClampOOG=false
CurveMode=Standard
CurveMode2=Standard
Curve=0;
Curve2=0;

[HLRecovery]
Enabled=true
Method=Color
Hlbl=0
Hlth=1

[Retinex]
Enabled=false
Str=20
Scal=3
Iter=1
Grad=1
Grads=1
Gam=1.3
Slope=3
Median=false
Neigh=80
Offs=0
Vart=200
Limd=8
highl=4
skal=3
complexMethod=normal
RetinexMethod=high
mapMethod=none
viewMethod=none
Retinexcolorspace=Lab
Gammaretinex=none
CDCurve=0;
MAPCurve=0;
CDHCurve=0;
LHCurve=0;
Highlights=0
HighlightTonalWidth=80
Shadows=0
ShadowTonalWidth=80
Radius=40
TransmissionCurve=1;0;0.5;0.34999999999999998;0.34999999999999998;0.59999999999999998;0.75;0.34999999999999998;0.34999999999999998;1;0.5;0.34999999999999998;0.34999999999999998;
GainTransmissionCurve=1;0;0.10000000000000001;0.34999999999999998;0;0.25;0.25;0.34999999999999998;0.34999999999999998;0.69999999999999996;0.25;0.34999999999999998;0.34999999999999998;1;0.10000000000000001;0;0;

[Local Contrast]
Enabled=false
Radius=80
Amount=0.20000000000000001
Darkness=1
Lightness=1

[Channel Mixer]
Enabled=false
Red=1000;0;0;
Green=0;1000;0;
Blue=0;0;1000;

[Black & White]
Enabled=false
Method=Desaturation
Auto=false
ComplementaryColors=true
Setting=RGB-Rel
Filter=None
MixerRed=33
MixerOrange=33
MixerYellow=33
MixerGreen=33
MixerCyan=33
MixerBlue=33
MixerMagenta=33
MixerPurple=33
GammaRed=0
GammaGreen=0
GammaBlue=0
Algorithm=SP
LuminanceCurve=0;
BeforeCurveMode=Standard
AfterCurveMode=Standard
BeforeCurve=0;
AfterCurve=0;

[Luminance Curve]
Enabled=false
Brightness=0
Contrast=0
Chromaticity=0
Gamutmunse=MUN
RedAndSkinTonesProtection=0
LCredsk=true
LCurve=0;
aCurve=0;
bCurve=0;
ccCurve=0;
chCurve=0;
lhCurve=0;
hhCurve=0;
LcCurve=0;
ClCurve=0;

[Sharpening]
Enabled=false
Contrast=20
Method=usm
Radius=0.5
BlurRadius=0.20000000000000001
Amount=200
Threshold=20;80;2000;1200;
OnlyEdges=false
EdgedetectionRadius=1.8999999999999999
EdgeTolerance=1800
HalocontrolEnabled=false
HalocontrolAmount=85
DeconvRadius=0.75
DeconvAmount=100
DeconvDamping=0
DeconvIterations=30

[Vibrance]
Enabled=false
Pastels=0
Saturated=0
PSThreshold=0;75;
ProtectSkins=false
AvoidColorShift=true
PastSatTog=true
SkinTonesCurve=0;

[SharpenEdge]
Enabled=false
Passes=2
Strength=50
ThreeChannels=false

[SharpenMicro]
Enabled=false
Matrix=false
Strength=20
Contrast=20
Uniformity=5

[White Balance]
Enabled=true
Setting=autitcgreen
Temperature=4827
Green=1.1080000000000001
Equal=1
TemperatureBias=0
StandardObserver=TWO_DEGREES
Itcwb_green=0
Itcwb_rangegreen=1
Itcwb_nopurple=false
Itcwb_alg=false
Itcwb_prim=XYZcam
Itcwb_sampling=false
CompatibilityVersion=2

[Color appearance]
Enabled=true
Degree=100
AutoDegree=true
Degreeout=85
AutoDegreeout=true
Surround=Average
complex=expert
ModelCat=16
CatCat=clas
Surrsrc=Average
AdaptLum=16
Badpixsl=0
Model=RawT
Illum=i50
Algorithm=JS
J-Light=0
Q-Bright=0
C-Chroma=0
S-Chroma=12.300000000000001
S-Chroma-red=-11.9
S-Chroma-green=6
S-Chroma-blue=-5
M-Chroma=0
J-Contrast=14.699999999999999
Q-Contrast=0
H-Hue=0
H-Hue-red=2
H-Hue-green=-1
H-Hue-blue=7
RSTProtection=0
AdaptScene=642.89999999999998
AutoAdapscen=true
YbScene=18
Autoybscen=true
SurrSource=false
Gamut=false
Tempout=5003
Autotempout=true
Greenout=1
Tempsc=5003
Greensc=1
Ybout=18
Datacie=false
Tonecie=false
CurveMode=Lightness
CurveMode2=Brightness
CurveMode3=Chroma
Curve=0;
Curvered=3;0;0;0.46913580246913583;0.52263374485596714;1;1;
Curvegreen=3;0;0;0.24380165289256187;0.37190082644628125;1;1;
Curveblue=3;0;0;0.065496777951723775;0.36567517384497761;0.59171005206247507;0.52617686678559672;0.82231404958677679;0.75206611570247928;0.99173553719008267;0.98760330578512379;
Curve2=0;
Curve3=0;

[Impulse Denoising]
Enabled=false
Threshold=50

[Defringing]
Enabled=false
Radius=2
Threshold=13
HueCurve=1;0.16666666699999999;0;0.34999999999999998;0.34999999999999998;0.34699999999999998;0;0.34999999999999998;0.34999999999999998;0.51366742600000004;0;0.34999999999999998;0.34999999999999998;0.66894457100000004;0;0.34999999999999998;0.34999999999999998;0.82877752459999998;0.97835991;0.34999999999999998;0.34999999999999998;0.99088838270000001;0;0.34999999999999998;0.34999999999999998;

[Dehaze]
Enabled=false
Strength=50
ShowDepthMap=false
Depth=25
Saturation=50

[Directional Pyramid Denoising]
Enabled=false
Enhance=false
Median=false
Luma=0
Ldetail=0
Chroma=15
Method=Lab
LMethod=SLI
CMethod=MAN
C2Method=AUTO
SMethod=shal
MedMethod=soft
RGBMethod=soft
MethodMed=Lonly
Redchro=0
Bluechro=0
AutoGain=true
Gamma=1.7
Passes=1
LCurve=1;0.050000000000000003;0.14999999999999999;0.34999999999999998;0.34999999999999998;0.55000000000000004;0.040000000000000001;0.34999999999999998;0.34999999999999998;
CCCurve=1;0.050000000000000003;0.5;0.34999999999999998;0.34999999999999998;0.34999999999999998;0.050000000000000003;0.34999999999999998;0.34999999999999998;

[EPD]
Enabled=false
Strength=0.5
Gamma=1
EdgeStopping=1.3999999999999999
Scale=1
ReweightingIterates=0

[FattalToneMapping]
Enabled=false
Threshold=30
Amount=20
Anchor=50

[Shadows & Highlights]
Enabled=false
Highlights=0
HighlightTonalWidth=70
Shadows=0
ShadowTonalWidth=30
Radius=40
Lab=false

[Compression gamut]
Enabled=true
th_c=0.51000000000000001
th_m=0.81999999999999995
th_y=0.81999999999999995
d_c=1.389
Autodc=true
d_m=1.407
Autodm=true
d_y=1.371
Autody=true
pwr=1.6000000000000001
colorspace=srgb
rolloff=true

[ToneEqualizer]
Enabled=false
Band0=0
Band1=0
Band2=0
Band3=0
Band4=0
Band5=0
Regularization=0
Pivot=0

[Crop]
Enabled=false
X=0
Y=0
W=4276
H=2836
FixedRatio=true
Ratio=As Image
Orientation=As Image
Guide=Frame

[Coarse Transformation]
Rotate=0
HorizontalFlip=false
VerticalFlip=false

[Common Properties for Transformations]
Method=log
Scale=1
Scale horizontally=1
Scale vertically=1
AutoFill=true

[Rotation]
Degree=0

[Distortion]
Amount=0
FocalLength=12
Defish=false

[LensProfile]
LcMode=none
LCPFile=
UseDistortion=true
UseVignette=true
UseCA=false
LFCameraMake=
LFCameraModel=
LFLens=

[Perspective]
Method=simple
Horizontal=0
Vertical=0
CameraCropFactor=0
CameraFocalLength=28
CameraPitch=0
CameraRoll=0
CameraShiftHorizontal=0
CameraShiftVertical=0
CameraYaw=0
ProjectionShiftHorizontal=0
ProjectionPitch=0
ProjectionRotate=0
ProjectionShiftVertical=0
ProjectionYaw=0
ControlLineValues=
ControlLineTypes=

[Gradient]
Enabled=false
Degree=0
Feather=25
Strength=0.59999999999999998
CenterX=0
CenterY=0

[Locallab]
Enabled=true
Selspot=0
Name_0=New Spot
Isvisible_0=true
PrevMethod_0=hide
Shape_0=RECT
SpotMethod_0=main
WavMethod_0=D6
SensiExclu_0=12
StructExclu_0=0
Struc_0=4
ShapeMethod_0=IND
AvoidgamutMethod_0=MUNS
Loc_0=3000;3000;3000;3000;
CenterX_0=-2
CenterY_0=-1
Circrad_0=18
QualityMethod_0=enh
ComplexMethod_0=mod
Transit_0=100
Feather_0=25
Thresh_0=2
Iter_0=2
Balan_0=1
Balanh_0=1
Colorde_0=5
Colorscope_0=30
Avoidrad_0=0
Transitweak_0=1
Transitgrad_0=0
Hishow_0=false
Activ_0=true
Avoidneg_0=true
Blwh_0=false
Recurs_0=false
Laplac_0=true
Deltae_0=true
Shortc_0=false
Savrest_0=false
Scopemask_0=60
Denoichmask_0=0
Lumask_0=10
Expshadhigh_0=true
Complexshadhigh_0=1
ShMethod_0=micha
GhsMethod_0=rgbstd
GhsMatmet_0=agx
GhsMode_0=ghs
Ghs_D_0=3.2999999999999998
Ghs_slope_0=9.0299999999999994
Ghs_chro_0=0
Ghs_B_0=2.5
Ghs_SP_0=0.0070800000000000004
SPAutoRadius_0=true
Ghs_LP_0=0
Ghs_HP_0=1
Ghs_LC_0=0
Ghs_MID_0=0
Ghs_BLP_0=0.0016000000000000001
Ghs_HLP_0=1.8513999999999999
Ghs_autobw_0=true
Ghs_agx_0=true
Ghs_smooth_0=false
Ghs_inv_0=false
Mich_exp_0=0
Mich_spar_0=1.1799999999999999
Mich_kpar_0=0.192
Mich_sat_0=1
Mich_out_0=1
Mich_black_0=true
Mich_white_0=true
Mich_high_0=0
Mich_jdx_0=false
Multsh0_0=0
Multsh1_0=0
Multsh2_0=0
Multsh3_0=0
Multsh4_0=0
Multsh5_0=0
highlights_0=0
h_tonalwidth_0=70
shadows_0=0
s_tonalwidth_0=30
sh_radius_0=40
sensihs_0=30
EnaSHMask_0=false
CCmaskSHCurve_0=1;0;1;0.34999999999999998;0.34999999999999998;0.5;1;0.34999999999999998;0.34999999999999998;1;1;0.34999999999999998;0.34999999999999998;
LLmaskSHCurve_0=1;0;1;0.34999999999999998;0.34999999999999998;0.5;1;0.34999999999999998;0.34999999999999998;1;1;0.34999999999999998;0.34999999999999998;
HHmaskSHCurve_0=1;0;1;0.34999999999999998;0.34999999999999998;0.5;1;0.34999999999999998;0.34999999999999998;1;1;0.34999999999999998;0.34999999999999998;
BlendmaskSH_0=0
RadmaskSH_0=0
BlurSHde_0=5
StrSH_0=0
AngSH_0=0
FeatherSH_0=25
Inverssh_0=false
ChromaskSH_0=0
GammaskSH_0=1
SlomaskSH_0=0
DetailSH_0=0
TePivot_0=0
Reparsh_0=100
LmaskSHCurve_0=3;0;0;1;1;
FatamountSH_0=1
FatanchorSH_0=50
GamSH_0=2.3999999999999999
SloSH_0=12.92
Recothress_0=1
Lowthress_0=12
Higthress_0=85
Decays_0=2

[PCVignette]
Enabled=false
Strength=0.59999999999999998
Feather=50
Roundness=50

[CACorrection]
Red=0
Blue=0

[Vignetting Correction]
Amount=0
Radius=50
Strength=1
CenterX=0
CenterY=0

[Resize]
Enabled=false
Scale=0.20999999999999999
AppliesTo=Cropped area
Method=Lanczos
DataSpecified=3
Width=900
Height=900
LongEdge=900
ShortEdge=900
AllowUpscaling=false

[Framing]
Enabled=false
FramingMethod=Standard
AspectRatio=0
Orientation=AsImage
FramedWidth=800
FramedHeight=600
AllowUpscaling=false
BorderSizingMethod=Percentage
Basis=Auto
RelativeBorderSize=0.10000000000000001
MinSizeEnabled=false
MinWidth=0
MinHeight=0
AbsWidth=0
AbsHeight=0
BorderRed=255
BorderGreen=255
BorderBlue=255

[PostDemosaicSharpening]
Enabled=true
Contrast=10
AutoContrast=true
AutoRadius=true
DeconvRadius=0.58999999999999997
DeconvRadiusOffset=0
DeconvIterCheck=true
Showcap=false
Noisecaptype=true
Noisecap=0
Noisecapafter=0
DeconvIterations=20

[PostResizeSharpening]
Enabled=false
Contrast=15
Method=rld
Radius=0.5
Amount=200
Threshold=20;80;2000;1200;
OnlyEdges=false
EdgedetectionRadius=1.8999999999999999
EdgeTolerance=1800
HalocontrolEnabled=false
HalocontrolAmount=85
DeconvRadius=0.45000000000000001
DeconvAmount=100
DeconvDamping=0
DeconvIterations=100

[Color Management]
InputProfile=(camera)
ToneCurve=false
ApplyLookTable=false
ApplyBaselineExposureOffset=true
ApplyHueSatMap=true
DCPIlluminant=0
WorkingProfile=Rec2020
WorkingTRC=Custom
Wwgamut=rgb
Will=D65
Wprim=def
Wcat=brad
OpacityCurveWLI=1;0;0.5;0.34999999999999998;0.34999999999999998;0.5;0.69999999999999996;0.34999999999999998;0.34999999999999998;1;0.5;0.34999999999999998;0.34999999999999998;
WorkingTRCGamma=3.6150000000000002
WorkingTRCSlope=7.3899999999999997
WorkingTRCsat=0.5
Wmidtcie=0
Sigmatrc=1
Offstrc=1
Residtrc=10
Wgampower=1.3999999999999999
Wgamgain=0
Pyrwavtrc=2
Wsmoothcie=false
Wsmoothciesli=0.22
Redx=0.70799999999999996
Redy=0.29199999999999998
Grex=0.17000000000000001
Grey=0.79700000000000004
Blux=0.13100000000000001
Bluy=0.045999999999999999
Redrot=0
Redsat=0
Grerot=0
Gresat=0
Blurot=0
Blusat=0
Refi=0
Shiftx=0
Shifty=0
LabGridcieALow=0.46908950805664062
LabGridcieBLow=-0.28727346658706665
LabGridcieAHigh=-0.58000040054321289
LabGridcieBHigh=-0.73454570770263672
LabGridcieGx=-0.50909137725830078
LabGridcieGy=0.63090741634368896
LabGridcieWx=-0.24963712692260742
LabGridcieWy=-0.22000080347061157
LabGridcieMx=-0.21375048160552979
LabGridcieMy=-0.19511282444000244
Preser=0
Fbw=false
TrcExp=true
WavExp=true
Gamut=true
OutputProfile=RTv4_sRGB
aIntent=Relative
OutputProfileIntent=Relative
OutputBPC=true

[Wavelet]
Enabled=false
Strength=100
Balance=0
Sigmafin=1
Sigmaton=1
Sigmacol=1
Sigmadir=1
Rangeab=20
Protab=0
Iter=0
MaxLev=7
TilesMethod=full
complexMethod=normal
mixMethod=mix7
sliMethod=sli
quaMethod=cons
DaubMethod=6_
ChoiceLevMethod=all
BackMethod=grey
LevMethod=4
DirMethod=all
CBgreenhigh=0
CBgreenmed=0
CBgreenlow=0
CBbluehigh=0
CBbluemed=0
CBbluelow=0
Ballum=7
Sigm=1
Levden=0
Thrden=0
Limden=0
Balchrom=0
Chromfine=0
Chromcoarse=0
MergeL=20
MergeC=20
Softrad=0
Softradend=0
Strend=50
Detend=0
Thrend=0
Expcontrast=false
Expchroma=false
Expedge=false
expbl=false
Expresid=false
Expfinal=false
Exptoning=false
Expnoise=false
Expclari=false
LabGridALow=0
LabGridBLow=0
LabGridAHigh=0
LabGridBHigh=0
Contrast1=0
Contrast2=0
Contrast3=0
Contrast4=0
Contrast5=0
Contrast6=0
Contrast7=0
Contrast8=0
Contrast9=0
Chroma1=0
Chroma2=0
Chroma3=0
Chroma4=0
Chroma5=0
Chroma6=0
Chroma7=0
Chroma8=0
Chroma9=0
ContExtra=0
HSMethod=with
HLRange=50;75;100;98;
SHRange=0;2;50;25;
Edgcont=0;10;75;40;
Level0noise=0;0;
Level1noise=0;0;
Level2noise=0;0;
Level3noise=0;0;
Leveldenoise=0;0;
Levelsigm=1;1;
ThresholdHighlight=4
ThresholdShadow=5
Edgedetect=90
Edgedetectthr=20
EdgedetectthrHi=0
Edgesensi=60
Edgeampli=10
ThresholdChroma=5
CHromaMethod=link
Medgreinf=less
Ushamethod=clari
CHSLromaMethod=SL
EDMethod=CU
NPMethod=none
BAMethod=none
TMMethod=cont
ChromaLink=0
ContrastCurve=1;0;0.25;0.34999999999999998;0.34999999999999998;0.5;0.75;0.34999999999999998;0.34999999999999998;0.90000000000000002;0;0.34999999999999998;0.34999999999999998;
blcurve=1;0;0;0;0.34999999999999998;0.5;0;0.34999999999999998;0.34999999999999998;1;0;0.34999999999999998;0.34999999999999998;
Pastlev=0;2;30;20;
Satlev=30;45;130;100;
OpacityCurveRG=1;0;0.5;0.34999999999999998;0.34999999999999998;1;0.5;0.34999999999999998;0.34999999999999998;
OpacityCurveBY=1;0;0.5;0.34999999999999998;0.34999999999999998;1;0.5;0.34999999999999998;0.34999999999999998;
wavdenoise=1;0;1;0.34999999999999998;0.34999999999999998;0.5;1;0.34999999999999998;0.34999999999999998;1;1;0.34999999999999998;0.34999999999999998;
wavdenoiseh=1;0;1;0.34999999999999998;0.34999999999999998;0.5;1;0.34999999999999998;0.34999999999999998;1;1;0.34999999999999998;0.34999999999999998;
OpacityCurveW=1;0;0.34999999999999998;0.34999999999999998;0;0.34999999999999998;0.75;0.34999999999999998;0.34999999999999998;0.59999999999999998;0.75;0.34999999999999998;0.34999999999999998;1;0.34999999999999998;0;0;
OpacityCurveWL=1;0;0.5;0.34999999999999998;0.34999999999999998;1;0.5;0.34999999999999998;0.34999999999999998;
HHcurve=0;
Wavguidcurve=0;
Wavhuecurve=0;
CHcurve=0;
WavclCurve=0;
Median=false
Medianlev=false
Linkedg=false
CBenab=false
Lipst=false
Skinprotect=0
chrwav=0
bluwav=1
Hueskin=-5;25;170;120;
Edgrad=15
Edgeffect=1
Edgval=0
ThrEdg=10
AvoidColorShift=false
Showmask=false
Oldsh=true
TMr=false
Sigma=1
Offset=1
Lowthr=40
ResidualcontShadow=0
ResidualcontHighlight=0
ThresholdResidShadow=30
ThresholdResidHighLight=70
Residualradius=40
Residualchroma=0
Residualblur=0
Residualblurc=0
ResidualTM=0
ResidualEDGS=1.3999999999999999
ResidualSCALE=1
Residualgamma=1
HueRangeResidual=0
HueRange=-260;-250;-130;-140;
Contrast=0

[Spot removal]
Enabled=false

[Directional Pyramid Equalizer]
Enabled=false
Gamutlab=false
cbdlMethod=bef
Mult0=1
Mult1=1
Mult2=1
Mult3=1
Mult4=1
Mult5=1
Threshold=0.20000000000000001
Skinprotect=0
Hueskin=-5;25;170;120;

[HSV Equalizer]
Enabled=false
HCurve=0;
SCurve=0;
VCurve=0;

[SoftLight]
Enabled=false
Strength=30

[Film Simulation]
Enabled=true
ClutFilename=HaldCLUT\\Color\\Kodak\\Kodak Portra 400 NC 1 -.png
Strength=70

[RGB Curves]
Enabled=false
LumaMode=false
rCurve=0;
gCurve=0;
bCurve=0;

[ColorToning]
Enabled=false
Method=LabRegions
Lumamode=true
Twocolor=Std
Redlow=0
Greenlow=0
Bluelow=0
Satlow=0
Balance=0
Sathigh=0
Redmed=0
Greenmed=0
Bluemed=0
Redhigh=0
Greenhigh=0
Bluehigh=0
Autosat=true
OpacityCurve=1;0;0.29999999999999999;0.34999999999999998;0;0.25;0.80000000000000004;0.34999999999999998;0.34999999999999998;0.69999999999999996;0.80000000000000004;0.34999999999999998;0.34999999999999998;1;0.29999999999999999;0;0;
ColorCurve=1;0.050000000000000003;0.62;0.25;0.25;0.58499999999999996;0.11;0.25;0.25;
SatProtectionThreshold=30
SaturatedOpacity=80
Strength=50
HighlightsColorSaturation=60;80;
ShadowsColorSaturation=80;208;
ClCurve=3;0;0;0.34999999999999998;0.65000000000000002;1;1;
Cl2Curve=3;0;0;0.34999999999999998;0.65000000000000002;1;1;
LabGridALow=0
LabGridBLow=0
LabGridAHigh=0
LabGridBHigh=0
LabRegionA_1=0
LabRegionB_1=0
LabRegionSaturation_1=0
LabRegionSlope_1=1
LabRegionOffset_1=0
LabRegionPower_1=1
LabRegionHueMask_1=1;0.16666666699999999;1;0.34999999999999998;0.34999999999999998;0.82877752459999998;1;0.34999999999999998;0.34999999999999998;
LabRegionChromaticityMask_1=1;0;1;0.34999999999999998;0.34999999999999998;1;1;0.34999999999999998;0.34999999999999998;
LabRegionLightnessMask_1=1;0;1;0.34999999999999998;0.34999999999999998;1;1;0.34999999999999998;0.34999999999999998;
LabRegionMaskBlur_1=0
LabRegionChannel_1=-1
LabRegionsShowMask=-1

[RAW]
DarkFrame=/szeva
DarkFrameAuto=false
FlatFieldFile=/szeva
FlatFieldAutoSelect=false
FlatFieldFromMetaData=false
FlatFieldBlurRadius=32
FlatFieldBlurType=Area Flatfield
FlatFieldAutoClipControl=false
FlatFieldClipControl=0
CA=true
CAAvoidColourshift=true
CAAutoIterations=2
CARed=0
CABlue=0
HotPixelFilter=false
DeadPixelFilter=false
HotDeadPixelThresh=100
PreExposure=1

[RAW Bayer]
Method=amaze
Border=4
ImageNum=1
CcSteps=0
PreBlack0=0
PreBlack1=0
PreBlack2=0
PreBlack3=0
PreTwoGreen=true
Dehablack=false
LineDenoise=0
LineDenoiseDirection=3
GreenEqThreshold=0
DCBIterations=2
DCBEnhance=true
LMMSEIterations=2
DualDemosaicAutoContrast=true
DualDemosaicContrast=10
PixelShiftMotionCorrectionMethod=1
PixelShiftEperIso=0
PixelShiftSigma=1
PixelShiftShowMotion=false
PixelShiftShowMotionMaskOnly=false
pixelShiftHoleFill=true
pixelShiftAverage=false
pixelShiftMedian=false
pixelShiftGreen=true
pixelShiftBlur=true
pixelShiftSmoothFactor=0.69999999999999996
pixelShiftEqualBright=false
pixelShiftEqualBrightChannel=false
pixelShiftNonGreenCross=true
pixelShiftDemosaicMethod=amaze
PDAFLinesFilter=false

[RAW X-Trans]
Method=3-pass (best)
DualDemosaicAutoContrast=true
DualDemosaicContrast=20
Border=7
CcSteps=0
PreBlackRed=0
PreBlackGreen=0
PreBlackBlue=0
Dehablackx=false

[MetaData]
Mode=1
ExifKeys=Exif.Image.Artist;Exif.Image.Copyright;Exif.Image.ImageDescription;Exif.Image.Make;Exif.Image.Model;Exif.Image.XResolution;Exif.Image.YResolution;Exif.Photo.DateTimeOriginal;Exif.Photo.ExposureBiasValue;Exif.Photo.ExposureTime;Exif.Photo.FNumber;Exif.Photo.Flash;Exif.Photo.FocalLength;Exif.Photo.ISOSpeedRatings;Exif.Photo.LensModel;Exif.Photo.UserComment;

[Film Negative]
Enabled=false
RedRatio=1.3600000000000001
GreenExponent=1.5
BlueRatio=0.85999999999999999
ColorSpace=1
RefInput=0;0;0;
RefOutput=2739.961181640625;2740.07568359375;2739.944580078125;

[RAW Preprocess WB]
Mode=1

[IPTC]
Creator=;
CreatorJobTitle=;
Caption=desc;
Category=;
City=;
Copyright=;
Country=;
Credit=;
DateCreated=;
Headline=;
Title=;
Province=;
Source=;
Instructions=;
TransReference=;
CaptionWriter=;
